bernoullicharts/1_3_x__bits.svg

<?xml version="1.0" encoding="utf-8" standalone="no"?>
<!DOCTYPE svg PUBLIC "-//W3C//DTD SVG 1.1//EN"
  "http://www.w3.org/Graphics/SVG/1.1/DTD/svg11.dtd">
<!-- Created with matplotlib (https://matplotlib.org/) -->
<svg height="345.6pt" version="1.1" viewBox="0 0 460.8 345.6" width="460.8pt" xmlns="http://www.w3.org/2000/svg" xmlns:xlink="http://www.w3.org/1999/xlink">
 <defs>
  <style type="text/css">
*{stroke-linecap:butt;stroke-linejoin:round;}
  </style>
 </defs>
 <g id="figure_1">
  <g id="patch_1">
   <path d="M 0 345.6 
L 460.8 345.6 
L 460.8 0 
L 0 0 
z
" style="fill:#ffffff;"/>
  </g>
  <g id="axes_1">
   <g id="patch_2">
    <path d="M 57.6 307.584 
L 414.72 307.584 
L 414.72 41.472 
L 57.6 41.472 
z
" style="fill:#ffffff;"/>
   </g>
   <g id="matplotlib.axis_1">
    <g id="xtick_1">
     <g id="line2d_1">
      <defs>
       <path d="M 0 0 
L 0 3.5 
" id="m7d8fd83ea0" style="stroke:#000000;stroke-width:0.8;"/>
      </defs>
      <g>
       <use style="stroke:#000000;stroke-width:0.8;" x="73.800255" xlink:href="#m7d8fd83ea0" y="307.584"/>
      </g>
     </g>
     <g id="text_1">
      <text style="font-family:DejaVu Sans;font-size:10px;font-style:normal;font-weight:normal;text-anchor:middle;" transform="rotate(-0, 73.800255, 322.182437)" x="73.800255" y="322.182437">0.0</text>
     </g>
    </g>
    <g id="xtick_2">
     <g id="line2d_2">
      <g>
       <use style="stroke:#000000;stroke-width:0.8;" x="138.744153" xlink:href="#m7d8fd83ea0" y="307.584"/>
      </g>
     </g>
     <g id="text_2">
      <text style="font-family:DejaVu Sans;font-size:10px;font-style:normal;font-weight:normal;text-anchor:middle;" transform="rotate(-0, 138.744153, 322.182437)" x="138.744153" y="322.182437">0.2</text>
     </g>
    </g>
    <g id="xtick_3">
     <g id="line2d_3">
      <g>
       <use style="stroke:#000000;stroke-width:0.8;" x="203.688051" xlink:href="#m7d8fd83ea0" y="307.584"/>
      </g>
     </g>
     <g id="text_3">
      <text style="font-family:DejaVu Sans;font-size:10px;font-style:normal;font-weight:normal;text-anchor:middle;" transform="rotate(-0, 203.688051, 322.182437)" x="203.688051" y="322.182437">0.4</text>
     </g>
    </g>
    <g id="xtick_4">
     <g id="line2d_4">
      <g>
       <use style="stroke:#000000;stroke-width:0.8;" x="268.631949" xlink:href="#m7d8fd83ea0" y="307.584"/>
      </g>
     </g>
     <g id="text_4">
      <text style="font-family:DejaVu Sans;font-size:10px;font-style:normal;font-weight:normal;text-anchor:middle;" transform="rotate(-0, 268.631949, 322.182437)" x="268.631949" y="322.182437">0.6</text>
     </g>
    </g>
    <g id="xtick_5">
     <g id="line2d_5">
      <g>
       <use style="stroke:#000000;stroke-width:0.8;" x="333.575847" xlink:href="#m7d8fd83ea0" y="307.584"/>
      </g>
     </g>
     <g id="text_5">
      <text style="font-family:DejaVu Sans;font-size:10px;font-style:normal;font-weight:normal;text-anchor:middle;" transform="rotate(-0, 333.575847, 322.182437)" x="333.575847" y="322.182437">0.8</text>
     </g>
    </g>
    <g id="xtick_6">
     <g id="line2d_6">
      <g>
       <use style="stroke:#000000;stroke-width:0.8;" x="398.519745" xlink:href="#m7d8fd83ea0" y="307.584"/>
      </g>
     </g>
     <g id="text_6">
      <text style="font-family:DejaVu Sans;font-size:10px;font-style:normal;font-weight:normal;text-anchor:middle;" transform="rotate(-0, 398.519745, 322.182437)" x="398.519745" y="322.182437">1.0</text>
     </g>
    </g>
    <g id="text_7">
     <text style="font-family:DejaVu Sans;font-size:10px;font-style:normal;font-weight:normal;text-anchor:middle;" transform="rotate(-0, 236.16, 335.860562)" x="236.16" y="335.860562">Probability</text>
    </g>
   </g>
   <g id="matplotlib.axis_2">
    <g id="ytick_1">
     <g id="line2d_7">
      <defs>
       <path d="M 0 0 
L -3.5 0 
" id="m19880016c3" style="stroke:#000000;stroke-width:0.8;"/>
      </defs>
      <g>
       <use style="stroke:#000000;stroke-width:0.8;" x="57.6" xlink:href="#m19880016c3" y="297.792"/>
      </g>
     </g>
     <g id="text_8">
      <text style="font-family:DejaVu Sans;font-size:10px;font-style:normal;font-weight:normal;text-anchor:end;" transform="rotate(-0, 50.6, 301.591219)" x="50.6" y="301.591219">3.4</text>
     </g>
    </g>
    <g id="ytick_2">
     <g id="line2d_8">
      <g>
       <use style="stroke:#000000;stroke-width:0.8;" x="57.6" xlink:href="#m19880016c3" y="264.877714"/>
      </g>
     </g>
     <g id="text_9">
      <text style="font-family:DejaVu Sans;font-size:10px;font-style:normal;font-weight:normal;text-anchor:end;" transform="rotate(-0, 50.6, 268.676933)" x="50.6" y="268.676933">3.6</text>
     </g>
    </g>
    <g id="ytick_3">
     <g id="line2d_9">
      <g>
       <use style="stroke:#000000;stroke-width:0.8;" x="57.6" xlink:href="#m19880016c3" y="231.963429"/>
      </g>
     </g>
     <g id="text_10">
      <text style="font-family:DejaVu Sans;font-size:10px;font-style:normal;font-weight:normal;text-anchor:end;" transform="rotate(-0, 50.6, 235.762647)" x="50.6" y="235.762647">3.8</text>
     </g>
    </g>
    <g id="ytick_4">
     <g id="line2d_10">
      <g>
       <use style="stroke:#000000;stroke-width:0.8;" x="57.6" xlink:href="#m19880016c3" y="199.049143"/>
      </g>
     </g>
     <g id="text_11">
      <text style="font-family:DejaVu Sans;font-size:10px;font-style:normal;font-weight:normal;text-anchor:end;" transform="rotate(-0, 50.6, 202.848362)" x="50.6" y="202.848362">4.0</text>
     </g>
    </g>
    <g id="ytick_5">
     <g id="line2d_11">
      <g>
       <use style="stroke:#000000;stroke-width:0.8;" x="57.6" xlink:href="#m19880016c3" y="166.134857"/>
      </g>
     </g>
     <g id="text_12">
      <text style="font-family:DejaVu Sans;font-size:10px;font-style:normal;font-weight:normal;text-anchor:end;" transform="rotate(-0, 50.6, 169.934076)" x="50.6" y="169.934076">4.2</text>
     </g>
    </g>
    <g id="ytick_6">
     <g id="line2d_12">
      <g>
       <use style="stroke:#000000;stroke-width:0.8;" x="57.6" xlink:href="#m19880016c3" y="133.220571"/>
      </g>
     </g>
     <g id="text_13">
      <text style="font-family:DejaVu Sans;font-size:10px;font-style:normal;font-weight:normal;text-anchor:end;" transform="rotate(-0, 50.6, 137.01979)" x="50.6" y="137.01979">4.4</text>
     </g>
    </g>
    <g id="ytick_7">
     <g id="line2d_13">
      <g>
       <use style="stroke:#000000;stroke-width:0.8;" x="57.6" xlink:href="#m19880016c3" y="100.306286"/>
      </g>
     </g>
     <g id="text_14">
      <text style="font-family:DejaVu Sans;font-size:10px;font-style:normal;font-weight:normal;text-anchor:end;" transform="rotate(-0, 50.6, 104.105504)" x="50.6" y="104.105504">4.6</text>
     </g>
    </g>
    <g id="ytick_8">
     <g id="line2d_14">
      <g>
       <use style="stroke:#000000;stroke-width:0.8;" x="57.6" xlink:href="#m19880016c3" y="67.392"/>
      </g>
     </g>
     <g id="text_15">
      <text style="font-family:DejaVu Sans;font-size:10px;font-style:normal;font-weight:normal;text-anchor:end;" transform="rotate(-0, 50.6, 71.191219)" x="50.6" y="71.191219">4.8</text>
     </g>
    </g>
    <g id="text_16">
     <text style="font-family:DejaVu Sans;font-size:10px;font-style:normal;font-weight:normal;text-anchor:middle;" transform="rotate(-90, 28.617187, 174.528)" x="28.617187" y="174.528">Average Bits Consumed Per Call</text>
    </g>
   </g>
   <g id="line2d_15">
    <path clip-path="url(#pc6b0066fa1)" d="M 73.832727 53.568 
L 77.112066 98.002286 
L 80.391405 126.308571 
L 83.670744 81.216 
L 86.950083 111.168 
L 90.229421 82.861714 
L 93.50876 78.253714 
L 96.788099 109.193143 
L 100.067438 118.738286 
L 103.346777 137.499429 
L 106.626116 113.472 
L 109.905455 124.992 
L 113.184793 138.486857 
L 116.464132 129.270857 
L 119.743471 82.203429 
L 123.02281 126.308571 
L 126.302149 137.828571 
L 129.581488 143.424 
L 132.860826 95.698286 
L 136.140165 109.522286 
L 139.419504 125.650286 
L 142.698843 147.702857 
L 145.978182 140.790857 
L 149.257521 166.464 
L 152.53686 155.273143 
L 155.816198 151.981714 
L 159.095537 172.717714 
L 162.374876 170.413714 
L 165.654215 157.906286 
L 168.933554 157.248 
L 172.212893 156.918857 
L 175.492231 144.082286 
L 178.77157 191.478857 
L 182.050909 131.574857 
L 185.330248 178.313143 
L 188.609587 160.210286 
L 191.888926 188.187429 
L 195.168264 175.350857 
L 198.447603 160.868571 
L 201.726942 210.569143 
L 205.006281 190.491429 
L 208.28562 201.024 
L 211.564959 214.189714 
L 214.844298 176.338286 
L 218.123636 177.654857 
L 221.402975 209.581714 
L 224.682314 195.099429 
L 227.961653 210.898286 
L 231.240992 182.921143 
L 234.520331 190.820571 
L 237.799669 201.353143 
L 241.079008 196.745143 
L 244.358347 198.390857 
L 247.637686 197.074286 
L 250.917025 201.024 
L 254.196364 222.418286 
L 257.475702 217.810286 
L 260.755041 199.049143 
L 264.03438 212.214857 
L 267.313719 194.112 
L 270.593058 226.368 
L 273.872397 212.214857 
L 277.151736 220.443429 
L 280.431074 236.900571 
L 283.710413 244.141714 
L 286.989752 233.938286 
L 290.269091 256.649143 
L 293.54843 239.533714 
L 296.827769 262.573714 
L 300.107107 249.737143 
L 303.386446 224.064 
L 306.665785 232.621714 
L 309.945124 231.963429 
L 313.224463 246.445714 
L 316.503802 233.609143 
L 319.78314 229.001143 
L 323.062479 264.877714 
L 326.341818 233.938286 
L 329.621157 223.405714 
L 332.900496 260.598857 
L 336.179835 272.118857 
L 339.459174 255.332571 
L 342.738512 251.053714 
L 346.017851 253.686857 
L 349.29719 270.144 
L 352.576529 267.181714 
L 355.855868 252.699429 
L 359.135207 245.458286 
L 362.414545 266.523429 
L 365.693884 278.043429 
L 368.973223 266.194286 
L 372.252562 278.701714 
L 375.531901 286.272 
L 378.81124 287.917714 
L 382.090579 279.030857 
L 385.369917 268.169143 
L 388.649256 271.460571 
L 391.928595 287.917714 
L 395.207934 261.257143 
L 398.487273 295.488 
" style="fill:none;stroke:#1f77b4;stroke-linecap:square;stroke-width:1.5;"/>
   </g>
   <g id="patch_3">
    <path d="M 57.6 307.584 
L 57.6 41.472 
" style="fill:none;stroke:#000000;stroke-linecap:square;stroke-linejoin:miter;stroke-width:0.8;"/>
   </g>
   <g id="patch_4">
    <path d="M 414.72 307.584 
L 414.72 41.472 
" style="fill:none;stroke:#000000;stroke-linecap:square;stroke-linejoin:miter;stroke-width:0.8;"/>
   </g>
   <g id="patch_5">
    <path d="M 57.6 307.584 
L 414.72 307.584 
" style="fill:none;stroke:#000000;stroke-linecap:square;stroke-linejoin:miter;stroke-width:0.8;"/>
   </g>
   <g id="patch_6">
    <path d="M 57.6 41.472 
L 414.72 41.472 
" style="fill:none;stroke:#000000;stroke-linecap:square;stroke-linejoin:miter;stroke-width:0.8;"/>
   </g>
   <g id="text_17">
    <text style="font-family:DejaVu Sans;font-size:12px;font-style:normal;font-weight:normal;text-anchor:middle;" transform="rotate(-0, 236.16, 35.472)" x="236.16" y="35.472">Avg. Bits Consumed by 1/(3+x) Algorithm</text>
   </g>
   <g id="legend_1">
    <g id="patch_7">
     <path d="M 337.524688 64.150125 
L 407.72 64.150125 
Q 409.72 64.150125 409.72 62.150125 
L 409.72 48.472 
Q 409.72 46.472 407.72 46.472 
L 337.524688 46.472 
Q 335.524688 46.472 335.524688 48.472 
L 335.524688 62.150125 
Q 335.524688 64.150125 337.524688 64.150125 
z
" style="fill:#ffffff;opacity:0.8;stroke:#cccccc;stroke-linejoin:miter;"/>
    </g>
    <g id="line2d_16">
     <path d="M 339.524688 54.570438 
L 359.524688 54.570438 
" style="fill:none;stroke:#1f77b4;stroke-linecap:square;stroke-width:1.5;"/>
    </g>
    <g id="line2d_17"/>
    <g id="text_18">
     <text style="font-family:DejaVu Sans;font-size:10px;font-style:normal;font-weight:normal;text-anchor:start;" transform="rotate(-0, 367.524688, 58.070438)" x="367.524688" y="58.070438">1/(3+x)</text>
    </g>
   </g>
  </g>
 </g>
 <defs>
  <clipPath id="pc6b0066fa1">
   <rect height="266.112" width="357.12" x="57.6" y="41.472"/>
  </clipPath>
 </defs>
</svg>

<svg height="460.8" viewBox="0 0 460.8 345.6" width="614.4" xmlns="http://www.w3.org/2000/svg" xmlns:xlink="http://www.w3.org/1999/xlink"><defs><style>*{stroke-linecap:butt;stroke-linejoin:round}</style></defs><g id="figure_1"><path d="M0 345.6h460.8V0H0z" fill="#fff" id="patch_1"/><g id="axes_1"><path d="M57.6 307.584h357.12V41.472H57.6z" fill="#fff" id="patch_2"/><g id="matplotlib.axis_1"><g id="xtick_1"><g id="line2d_1"><defs><path d="M0 0v3.5" id="m7d8fd83ea0" stroke="#000" stroke-width=".8"/></defs><use x="73.8" xlink:href="#m7d8fd83ea0" y="307.584" stroke="#000" stroke-width=".8"/></g><text x="73.8" y="322.182" font-family="DejaVu Sans" font-size="10" font-weight="400" text-anchor="middle" id="text_1">0.0</text></g><g id="xtick_2"><use x="138.744" xlink:href="#m7d8fd83ea0" y="307.584" stroke="#000" stroke-width=".8" id="line2d_2"/><text x="138.744" y="322.182" font-family="DejaVu Sans" font-size="10" font-weight="400" text-anchor="middle" id="text_2">0.2</text></g><g id="xtick_3"><use x="203.688" xlink:href="#m7d8fd83ea0" y="307.584" stroke="#000" stroke-width=".8" id="line2d_3"/><text x="203.688" y="322.182" font-family="DejaVu Sans" font-size="10" font-weight="400" text-anchor="middle" id="text_3">0.4</text></g><g id="xtick_4"><use x="268.632" xlink:href="#m7d8fd83ea0" y="307.584" stroke="#000" stroke-width=".8" id="line2d_4"/><text x="268.632" y="322.182" font-family="DejaVu Sans" font-size="10" font-weight="400" text-anchor="middle" id="text_4">0.6</text></g><g id="xtick_5"><use x="333.576" xlink:href="#m7d8fd83ea0" y="307.584" stroke="#000" stroke-width=".8" id="line2d_5"/><text x="333.576" y="322.182" font-family="DejaVu Sans" font-size="10" font-weight="400" text-anchor="middle" id="text_5">0.8</text></g><g id="xtick_6"><use x="398.52" xlink:href="#m7d8fd83ea0" y="307.584" stroke="#000" stroke-width=".8" id="line2d_6"/><text x="398.52" y="322.182" font-family="DejaVu Sans" font-size="10" font-weight="400" text-anchor="middle" id="text_6">1.0</text></g><text x="236.16" y="335.861" font-family="DejaVu Sans" font-size="10" font-weight="400" text-anchor="middle" id="text_7">Probability</text></g><g id="matplotlib.axis_2"><g id="ytick_1"><g id="line2d_7"><defs><path d="M0 0h-3.5" id="m19880016c3" stroke="#000" stroke-width=".8"/></defs><use x="57.6" xlink:href="#m19880016c3" y="297.792" stroke="#000" stroke-width=".8"/></g><text x="50.6" y="301.591" font-family="DejaVu Sans" font-size="10" font-weight="400" text-anchor="end" id="text_8">3.4</text></g><g id="ytick_2"><use x="57.6" xlink:href="#m19880016c3" y="264.878" stroke="#000" stroke-width=".8" id="line2d_8"/><text x="50.6" y="268.677" font-family="DejaVu Sans" font-size="10" font-weight="400" text-anchor="end" id="text_9">3.6</text></g><g id="ytick_3"><use x="57.6" xlink:href="#m19880016c3" y="231.963" stroke="#000" stroke-width=".8" id="line2d_9"/><text x="50.6" y="235.763" font-family="DejaVu Sans" font-size="10" font-weight="400" text-anchor="end" id="text_10">3.8</text></g><g id="ytick_4"><use x="57.6" xlink:href="#m19880016c3" y="199.049" stroke="#000" stroke-width=".8" id="line2d_10"/><text x="50.6" y="202.848" font-family="DejaVu Sans" font-size="10" font-weight="400" text-anchor="end" id="text_11">4.0</text></g><g id="ytick_5"><use x="57.6" xlink:href="#m19880016c3" y="166.135" stroke="#000" stroke-width=".8" id="line2d_11"/><text x="50.6" y="169.934" font-family="DejaVu Sans" font-size="10" font-weight="400" text-anchor="end" id="text_12">4.2</text></g><g id="ytick_6"><use x="57.6" xlink:href="#m19880016c3" y="133.221" stroke="#000" stroke-width=".8" id="line2d_12"/><text x="50.6" y="137.02" font-family="DejaVu Sans" font-size="10" font-weight="400" text-anchor="end" id="text_13">4.4</text></g><g id="ytick_7"><use x="57.6" xlink:href="#m19880016c3" y="100.306" stroke="#000" stroke-width=".8" id="line2d_13"/><text x="50.6" y="104.106" font-family="DejaVu Sans" font-size="10" font-weight="400" text-anchor="end" id="text_14">4.6</text></g><g id="ytick_8"><use x="57.6" xlink:href="#m19880016c3" y="67.392" stroke="#000" stroke-width=".8" id="line2d_14"/><text x="50.6" y="71.191" font-family="DejaVu Sans" font-size="10" font-weight="400" text-anchor="end" id="text_15">4.8</text></g><text transform="rotate(-90 28.617 174.528)" x="28.617" y="174.528" font-family="DejaVu Sans" font-size="10" font-weight="400" text-anchor="middle" id="text_16">Average Bits Consumed Per Call</text></g><path clip-path="url(#pc6b0066fa1)" d="M73.833 53.568l3.28 44.434 3.278 28.307 3.28-45.093 3.28 29.952 3.278-28.306 3.28-4.608 3.28 30.94 3.278 9.544 3.28 18.761 3.28-24.027 3.278 11.52 3.28 13.495 3.28-9.216 3.278-47.068 3.28 44.106 3.28 11.52 3.278 5.595 3.28-47.726 3.28 13.824 3.279 16.128 3.279 22.053 3.28-6.912 3.279 25.673 3.279-11.19 3.28-3.292 3.279 20.736 3.279-2.304 3.28-12.508 3.279-.658 3.279-.33 3.28-12.836 3.279 47.397 3.279-59.904 3.28 46.738 3.279-18.103 3.279 27.977 3.28-12.836 3.279-14.482 3.279 49.7 3.28-20.078 3.279 10.533 3.279 13.166 3.28-37.852 3.279 1.317 3.279 31.927 3.28-14.483 3.279 15.8 3.279-27.978 3.28 7.9 3.279 10.532 3.279-4.608 3.28 1.646 3.279-1.317 3.279 3.95 3.28 21.394 3.279-4.608 3.279-18.76 3.28 13.165 3.279-18.103 3.28 32.256 3.278-14.153 3.28 8.228 3.28 16.458 3.278 7.24 3.28-10.203 3.28 22.711 3.278-17.115 3.28 23.04 3.28-12.837 3.278-25.673 3.28 8.558 3.28-.659 3.278 14.483 3.28-12.837 3.28-4.608 3.278 35.877 3.28-30.94 3.28-10.532 3.278 37.193 3.28 11.52 3.28-16.786 3.279-4.28 3.279 2.634 3.28 16.457 3.279-2.962 3.279-14.483 3.28-7.24 3.279 21.064 3.279 11.52 3.28-11.849 3.279 12.508 3.279 7.57 3.28 1.646 3.279-8.887 3.279-10.862 3.28 3.292 3.279 16.457 3.279-26.66 3.28 34.23" fill="none" stroke="#1f77b4" stroke-linecap="square" stroke-width="1.5" id="line2d_15"/><path d="M57.6 307.584V41.472" fill="none" stroke="#000" stroke-linecap="square" stroke-width=".8" id="patch_3"/><path d="M414.72 307.584V41.472" fill="none" stroke="#000" stroke-linecap="square" stroke-width=".8" id="patch_4"/><path d="M57.6 307.584h357.12" fill="none" stroke="#000" stroke-linecap="square" stroke-width=".8" id="patch_5"/><path d="M57.6 41.472h357.12" fill="none" stroke="#000" stroke-linecap="square" stroke-width=".8" id="patch_6"/><text x="236.16" y="35.472" font-family="DejaVu Sans" font-size="12" font-weight="400" text-anchor="middle" id="text_17">Avg. Bits Consumed by 1/(3+x) Algorithm</text><g id="legend_1"><path d="M337.525 64.15h70.195q2 0 2-2V48.472q0-2-2-2h-70.195q-2 0-2 2V62.15q0 2 2 2z" fill="#fff" opacity=".8" stroke="#ccc" id="patch_7"/><path d="M339.525 54.57h20" fill="none" stroke="#1f77b4" stroke-linecap="square" stroke-width="1.5" id="line2d_16"/><text x="367.525" y="58.07" font-family="DejaVu Sans" font-size="10" font-weight="400" id="text_18">1/(3+x)</text></g></g></g><defs><clipPath id="pc6b0066fa1"><path d="M57.6 41.472h357.12v266.112H57.6z"/></clipPath></defs></svg>
